build/svg/cmd/sc_hidenote.svg

<?xml version="1.0" encoding="UTF-8" standalone="no"?>
<svg
   xmlns:dc="http://purl.org/dc/elements/1.1/"
   xmlns:cc="http://creativecommons.org/ns#"
   xmlns:rdf="http://www.w3.org/1999/02/22-rdf-syntax-ns#"
   xmlns:svg="http://www.w3.org/2000/svg"
   xmlns="http://www.w3.org/2000/svg"
   xmlns:sodipodi="http://sodipodi.sourceforge.net/DTD/sodipodi-0.dtd"
   xmlns:inkscape="http://www.inkscape.org/namespaces/inkscape"
   viewBox="0 0 16 16"
   version="1.1"
   id="svg4"
   sodipodi:docname="sc_hidenote.svg"
   inkscape:version="0.92.5 (2060ec1f9f, 2020-04-08)"
   inkscape:export-filename="/home/jupiter007/Libreoffice yaru theme fullcolor/build/cmd/sc_hidenote.png"
   inkscape:export-xdpi="95"
   inkscape:export-ydpi="95">
  <metadata
     id="metadata10">
    <rdf:RDF>
      <cc:Work
         rdf:about="">
        <dc:format>image/svg+xml</dc:format>
        <dc:type
           rdf:resource="http://purl.org/dc/dcmitype/StillImage" />
      </cc:Work>
    </rdf:RDF>
  </metadata>
  <defs
     id="defs8" />
  <sodipodi:namedview
     pagecolor="#ffffff"
     bordercolor="#666666"
     borderopacity="1"
     objecttolerance="10"
     gridtolerance="10"
     guidetolerance="10"
     inkscape:pageopacity="0"
     inkscape:pageshadow="2"
     inkscape:window-width="1920"
     inkscape:window-height="1011"
     id="namedview6"
     showgrid="true"
     inkscape:zoom="29.5"
     inkscape:cx="5.7541772"
     inkscape:cy="2.9830924"
     inkscape:window-x="0"
     inkscape:window-y="32"
     inkscape:window-maximized="1"
     inkscape:current-layer="svg4">
    <inkscape:grid
       type="xygrid"
       id="grid823" />
  </sodipodi:namedview>
  <path
     sodipodi:nodetypes="ssscccsscsss"
     inkscape:connector-curvature="0"
     d="m 5,2.0024297 c -2,0 -3,0 -3,1.9999998 v 5.0000004 c 0,1.9999991 1,1.9999991 3,1.9999991 l 4,3 v -3 h 2 c 2,0 3,0 3,-1.9999991 V 8.0024297 4.0024295 C 14,2.0024297 13,2.0024297 11,2.0024297 Z"
     style="opacity:0.6;fill:#000000;fill-opacity:1;fill-rule:nonzero;stroke:#000000;stroke-width:2;stroke-linecap:butt;stroke-linejoin:round;stroke-miterlimit:4;stroke-dasharray:none;stroke-dashoffset:0;stroke-opacity:1"
     id="path816" />
  <path
     id="rect823"
     style="opacity:1;fill:#fa9381;fill-opacity:1;fill-rule:nonzero;stroke:none;stroke-width:0.00106905;stroke-linecap:butt;stroke-linejoin:round;stroke-miterlimit:4;stroke-dasharray:none;stroke-dashoffset:0;stroke-opacity:1"
     d="m 5,2.0024297 c -2,0 -3,0 -3,1.9999998 v 5.0000004 c 0,1.9999991 1,1.9999991 3,1.9999991 l 4,3 v -3 h 2 c 2,0 3,0 3,-1.9999991 V 8.0024297 4.0024295 C 14,2.0024297 13,2.0024297 11,2.0024297 Z"
     inkscape:connector-curvature="0"
     sodipodi:nodetypes="ssscccsscsss" />
  <path
     style="opacity:1;fill:#ffffff;fill-opacity:1;fill-rule:nonzero;stroke:none;stroke-width:0.00097591;stroke-linecap:butt;stroke-linejoin:round;stroke-miterlimit:4;stroke-dasharray:none;stroke-dashoffset:0;stroke-opacity:1"
     d="m 4.333333,5.0024295 h 7.333333 C 11.851334,5.0024295 12,5.2254296 12,5.5024296 12,5.7794297 11.851334,6.0024297 11.666666,6.0024297 H 4.333333 C 4.148667,6.0024297 4,5.7794297 4,5.5024296 4,5.2254296 4.148667,5.0024295 4.333333,5.0024295 Z"
     id="path822"
     inkscape:connector-curvature="0"
     sodipodi:nodetypes="sssssss" />
  <path
     sodipodi:nodetypes="sssssss"
     inkscape:connector-curvature="0"
     id="path828"
     d="m 4.333333,7.0024297 h 7.333333 c 0.184668,0 0.333334,0.223 0.333334,0.5 0,0.277 -0.148666,0.5 -0.333334,0.5 H 4.333333 c -0.184666,0 -0.333333,-0.223 -0.333333,-0.5 0,-0.277 0.148667,-0.5 0.333333,-0.5 z"
     style="opacity:1;fill:#ffffff;fill-opacity:1;fill-rule:nonzero;stroke:none;stroke-width:0.00097591;stroke-linecap:butt;stroke-linejoin:round;stroke-miterlimit:4;stroke-dasharray:none;stroke-dashoffset:0;stroke-opacity:1" />
  <circle
     style="opacity:0.6;fill:#000000;fill-opacity:1;fill-rule:evenodd;stroke:#000000;stroke-width:2;stroke-linecap:butt;stroke-linejoin:round;stroke-miterlimit:4;stroke-dasharray:none;stroke-opacity:1"
     id="path831"
     cx="12.000001"
     cy="12"
     r="3" />
  <circle
     r="3"
     cy="12"
     cx="12.000001"
     id="circle833"
     style="opacity:1;fill:#ffffff;fill-opacity:1;fill-rule:evenodd;stroke:none;stroke-width:2;stroke-linecap:butt;stroke-linejoin:round;stroke-miterlimit:4;stroke-dasharray:none;stroke-opacity:1" />
  <path
     d="m 12,10 c -1.104569,0 -2,0.895431 -2,2 0,1.10457 0.895431,2 2,2 1.104569,0 2,-0.89543 2,-2 0.02896,-0.194894 0.02896,-0.392997 0,-0.587891 C 13.825992,11.801139 13.42455,12.037143 13,12 12.447715,12 12,11.552285 12,11 11.96318,10.574973 12.200048,10.173388 12.589844,10 12.39431,9.97085 12.195534,9.97085 12,10 Z"
     id="path2-3"
     inkscape:connector-curvature="0"
     style="fill:#232629"
     sodipodi:nodetypes="csscccccc" />
  <rect
     style="opacity:0.6;fill:#aee3f8;fill-opacity:1;fill-rule:evenodd;stroke:#000000;stroke-width:2;stroke-linecap:butt;stroke-linejoin:round;stroke-miterlimit:4;stroke-dasharray:none;stroke-opacity:1"
     id="rect845"
     width="1"
     height="9"
     x="17.127434"
     y="-4.5000215"
     transform="rotate(45)"
     inkscape:transform-center-x="3.559322"
     inkscape:transform-center-y="-0.47457627" />
  <rect
     y="-4.5000215"
     x="17.127434"
     height="9"
     width="1"
     id="rect847"
     style="opacity:1;fill:#aee3f8;fill-opacity:1;fill-rule:evenodd;stroke:none;stroke-width:2;stroke-linecap:butt;stroke-linejoin:round;stroke-miterlimit:4;stroke-dasharray:none;stroke-opacity:1"
     transform="rotate(45)"
     inkscape:transform-center-x="3.559322"
     inkscape:transform-center-y="-0.47457627" />
</svg>

<svg xmlns="http://www.w3.org/2000/svg" viewBox="0 0 16 16"><path d="M5 2.002c-2 0-3 0-3 2v5c0 2 1 2 3 2l4 3v-3h2c2 0 3 0 3-2v-5c0-2-1-2-3-2z" opacity=".6" stroke="#000" stroke-width="2" stroke-linejoin="round"/><path d="M5 2.002c-2 0-3 0-3 2v5c0 2 1 2 3 2l4 3v-3h2c2 0 3 0 3-2v-5c0-2-1-2-3-2z" fill="#fa9381"/><path d="M4.333 5.002h7.334c.184 0 .333.223.333.5s-.149.5-.333.5H4.333c-.184 0-.333-.223-.333-.5s.149-.5.333-.5zM4.333 7.002h7.334c.184 0 .333.223.333.5s-.149.5-.333.5H4.333c-.184 0-.333-.223-.333-.5s.149-.5.333-.5z" fill="#fff"/><circle cx="12" cy="12" r="3" opacity=".6" fill-rule="evenodd" stroke="#000" stroke-width="2" stroke-linejoin="round"/><circle r="3" cy="12" cx="12" fill="#fff" fill-rule="evenodd"/><path d="M12 10a2 2 0 102 2 2 2 0 000-.588A1 1 0 0113 12a1 1 0 01-1-1 1 1 0 01.59-1 2 2 0 00-.59 0z" fill="#232629"/><path opacity=".6" fill="#aee3f8" fill-rule="evenodd" stroke="#000" stroke-width="2" stroke-linejoin="round" d="M15.293 8.929l.707.707L9.636 16l-.707-.707z"/><path fill="#aee3f8" fill-rule="evenodd" d="M15.293 8.929l.707.707L9.636 16l-.707-.707z"/></svg>
